X:1
T: Be Easy you Rogue!
C:
R:Jig
Q:180
K:A
M:6/8
L:1/16
|:E2|A2c2A2 B2A2F2|d6 d6|ABc2A2 B2A2F2|B6 B6|A2c2A2 B2A2F2|d2e2d2 d2f2a2|e2c2A2 B2A2F2|A6 A4:|
|:cd|e2c2A2 e2c2A2|d6 d2f2a2|e2c2A2 e2c2A2|B6 B6|A2c2A2 B2A2F2|D2F2A2 d2f2a2|e2c2A2 B2A2F2|A6 A4:|
|:d2|c2A2A2 B2F2F2|A2E2E2 d2f2a2|e2c2A2 B2A2F2|B6 B4d2|c2ABcA B2GABG|A2EFGE d2f2a2|e2c2A2 B2A2F2|A6 A4:|
|:e2|a2g2a2 fedcBA|d2d2d2 d4f2|a2g2a2 fedcBA|B2B2B2 B4fg|a2g2a2 fedcBA|D2F2A2 d2f2a2|e2c2A2 B2A2F2|A6 A4:|
